trackball/_inc/system.svg

<svg viewBox="0 0 200 40" xmlns="http://www.w3.org/2000/svg"><path d="m35.363 20c0 7.686-8.332 12.49-15.001 8.647-3.094-1.782-4.999-5.08-4.999-8.647 0-7.686 8.332-12.491 15.001-8.648 3.093 1.784 4.999 5.082 4.999 8.648z" fill="none" stroke="#ccc" stroke-linecap="round" stroke-linejoin="round"/><path d="m56.426 10.45-.87 4.8h-4.14l-2.43 13.95h-5.7l2.43-13.95h-4.11l.87-4.8zm12.659 12.51 1.98 6.24h-6.27l-1.38-5.58h-1.23l-.96 5.58h-5.7l3.3-18.75h9c3.42 0 5.13 1.53 5.13 4.59 0 1.26-.19 2.46-.57 3.6-.7 2.16-1.8 3.6-3.3 4.32zm-4.29-7.71h-1.14l-.66 3.75h1.32c.68 0 1.193-.073 1.54-.22.353-.153.593-.583.72-1.29.133-.713.2-1.15.2-1.31 0-.4-.153-.657-.46-.77-.313-.107-.82-.16-1.52-.16zm14.129 10.98-1.17 2.97h-6l7.89-18.75h8.82l1.32 18.75h-6.03l-.12-2.97zm4.26-10.02h-.3l-2.1 5.25h2.4zm21.479 7.62-.48 5.04c-1.28.52-2.9.78-4.86.78-2.52 0-4.327-.49-5.42-1.47-1.087-.98-1.63-2.49-1.63-4.53 0-.86.14-2.13.42-3.81.6-3.44 1.633-5.94 3.1-7.5 1.473-1.56 3.8-2.34 6.98-2.34.74 0 1.586.077 2.54.23.946.147 1.64.33 2.08.55l-1.68 4.59c-1.18-.28-2.284-.42-3.31-.42-1.034 0-1.77.1-2.21.3-.44.2-.71.6-.81 1.2l-1.38 7.86c.72.16 1.46.24 2.22.24 1.62 0 3.1-.24 4.44-.72zm9.419-2.22.03-.57h-.24l-1.41 8.16h-5.7l3.3-18.75h5.7l-1.35 7.65h.24c.16-.64.34-1.12.54-1.44l3.78-6.21h6.15l-5.88 9.21 2.73 9.54h-6.15l-1.65-6.72c-.06-.2-.09-.49-.09-.87zm20.188 7.59h-10.26l3.3-18.75h9.24c1.44 0 2.484.25 3.13.75.654.5.98 1.27.98 2.31 0 1.52-.336 2.77-1.01 3.75-.666.98-1.48 1.59-2.44 1.83l-.03.18c1.8.34 2.701 1.53 2.701 3.57 0 1.8-.491 3.31-1.47 4.53-.981 1.22-2.361 1.83-4.141 1.83zm-1.019-7.47h-2.251l-.54 3.06h2.22c.5 0 .88-.2 1.14-.6.26-.4.39-.91.39-1.53 0-.62-.32-.93-.959-.93zm.839-7.17h-1.8l-.509 2.79h1.769c.921 0 1.38-.65 1.38-1.95 0-.56-.28-.84-.84-.84zm12.689 11.67-1.17 2.97h-6l7.89-18.75h8.82l1.32 18.75h-6.03l-.12-2.97zm4.26-10.02h-.3l-2.1 5.25h2.4zm20.819 8.19-.84 4.8h-11.4l3.3-18.75h5.7l-2.46 13.95zm12.779 0-.84 4.8h-11.4l3.3-18.75h5.7l-2.46 13.95z" fill="#fff"/><path d="m24.709 26.984c-.53-.051-1.199-.201-1.707-.384-2.021-.733-3.606-2.358-4.283-4.392-.515-1.551-.472-3.25.127-4.758.355-.893.837-1.632 1.513-2.329.558-.57 1.124-.99 1.82-1.349 2.313-1.194 5.117-.99 7.239.521.333.24.586.454.9.77 1.104 1.102 1.787 2.482 2.002 4.046.04.303.057 1.18.029 1.504-.186 2.057-1.253 3.904-2.949 5.115-.983.699-2.197 1.149-3.403 1.257-.247.02-1.047.02-1.288-.001zm-3.071-4.351c-.078-.229-.161-.579-.203-.84-.043-.291-.043-.998 0-1.296.178-1.175.69-2.179 1.521-2.989.835-.811 1.842-1.297 2.991-1.444.284-.037.938-.031 1.207.011.27.041.619.123.84.2.095.032.173.055.179.05.011-.014-.269-.215-.442-.321-.539-.327-1.139-.533-1.809-.623-.235-.029-.889-.029-1.118.003-1.38.189-2.56.926-3.325 2.077-.15.223-.397.718-.494.981-.492 1.344-.311 2.879.48 4.08.081.123.216.296.222.287.004-.005-.019-.083-.049-.176z" fill="#ccc"/></svg>

<?xml version="1.0" encoding="utf-8"?>
<svg viewBox="0 0 200 40" xmlns="http://www.w3.org/2000/svg">
  <path d="M 35.363 20 C 35.363 27.686 27.031 32.49 20.362 28.647 C 17.268 26.865 15.363 23.567 15.363 20 C 15.363 12.314 23.695 7.509 30.364 11.352 C 33.457 13.136 35.363 16.434 35.363 20 Z" style="opacity: 1; fill: none; fill-opacity: 1; fill-rule: evenodd; stroke-linecap: round; stroke-linejoin: round; stroke-miterlimit: 4; stroke-dasharray: none; stroke-dashoffset: 0; stroke-opacity: 1; stroke: rgb(204, 204, 204);" id="path2923"/>
  <path d="M 56.426 10.45 L 55.556 15.25 L 51.416 15.25 L 48.986 29.2 L 43.286 29.2 L 45.716 15.25 L 41.606 15.25 L 42.476 10.45 L 56.426 10.45 Z M 69.085 22.96 L 71.065 29.2 L 64.795 29.2 L 63.415 23.62 L 62.185 23.62 L 61.225 29.2 L 55.525 29.2 L 58.825 10.45 L 67.825 10.45 L 67.825 10.45 C 71.245 10.45 72.955 11.98 72.955 15.04 L 72.955 15.04 L 72.955 15.04 C 72.955 16.3 72.765 17.5 72.385 18.64 L 72.385 18.64 L 72.385 18.64 C 71.685 20.8 70.585 22.24 69.085 22.96 L 69.085 22.96 Z M 64.795 15.25 L 63.655 15.25 L 62.995 19 L 64.315 19 L 64.315 19 C 64.995 19 65.508 18.927 65.855 18.78 L 65.855 18.78 L 65.855 18.78 C 66.208 18.627 66.448 18.197 66.575 17.49 L 66.575 17.49 L 66.575 17.49 C 66.708 16.777 66.775 16.34 66.775 16.18 L 66.775 16.18 L 66.775 16.18 C 66.775 15.78 66.622 15.523 66.315 15.41 L 66.315 15.41 L 66.315 15.41 C 66.002 15.303 65.495 15.25 64.795 15.25 L 64.795 15.25 Z M 78.924 26.23 L 77.754 29.2 L 71.754 29.2 L 79.644 10.45 L 88.464 10.45 L 89.784 29.2 L 83.754 29.2 L 83.634 26.23 L 78.924 26.23 Z M 83.184 16.21 L 82.884 16.21 L 80.784 21.46 L 83.184 21.46 L 83.184 16.21 Z M 104.663 23.83 L 104.663 23.83 L 104.183 28.87 L 104.183 28.87 C 102.903 29.39 101.283 29.65 99.323 29.65 L 99.323 29.65 L 99.323 29.65 C 96.803 29.65 94.996 29.16 93.903 28.18 L 93.903 28.18 L 93.903 28.18 C 92.816 27.2 92.273 25.69 92.273 23.65 L 92.273 23.65 L 92.273 23.65 C 92.273 22.79 92.413 21.52 92.693 19.84 L 92.693 19.84 L 92.693 19.84 C 93.293 16.4 94.326 13.9 95.793 12.34 L 95.793 12.34 L 95.793 12.34 C 97.266 10.78 99.593 10 102.773 10 L 102.773 10 L 102.773 10 C 103.513 10 104.359 10.077 105.313 10.23 L 105.313 10.23 L 105.313 10.23 C 106.259 10.377 106.953 10.56 107.393 10.78 L 107.393 10.78 L 105.713 15.37 L 105.713 15.37 C 104.533 15.09 103.429 14.95 102.403 14.95 L 102.403 14.95 L 102.403 14.95 C 101.369 14.95 100.633 15.05 100.193 15.25 L 100.193 15.25 L 100.193 15.25 C 99.753 15.45 99.483 15.85 99.383 16.45 L 99.383 16.45 L 98.003 24.31 L 98.003 24.31 C 98.723 24.47 99.463 24.55 100.223 24.55 L 100.223 24.55 L 100.223 24.55 C 101.843 24.55 103.323 24.31 104.663 23.83 Z M 114.082 21.61 L 114.082 21.61 L 114.112 21.04 L 113.872 21.04 L 112.462 29.2 L 106.762 29.2 L 110.062 10.45 L 115.762 10.45 L 114.412 18.1 L 114.652 18.1 L 114.652 18.1 C 114.812 17.46 114.992 16.98 115.192 16.66 L 115.192 16.66 L 118.972 10.45 L 125.122 10.45 L 119.242 19.66 L 121.972 29.2 L 115.822 29.2 L 114.172 22.48 L 114.172 22.48 C 114.112 22.28 114.082 21.99 114.082 21.61 Z M 134.27 29.2 L 124.01 29.2 L 127.31 10.45 L 136.55 10.45 L 136.55 10.45 C 137.99 10.45 139.034 10.7 139.68 11.2 L 139.68 11.2 L 139.68 11.2 C 140.334 11.7 140.66 12.47 140.66 13.51 L 140.66 13.51 L 140.66 13.51 C 140.66 15.03 140.324 16.28 139.65 17.26 L 139.65 17.26 L 139.65 17.26 C 138.984 18.24 138.17 18.85 137.21 19.09 L 137.21 19.09 L 137.18 19.27 L 137.18 19.27 C 138.98 19.61 139.881 20.8 139.881 22.84 L 139.881 22.84 L 139.881 22.84 C 139.881 24.64 139.39 26.15 138.411 27.37 L 138.411 27.37 L 138.411 27.37 C 137.43 28.59 136.05 29.2 134.27 29.2 L 134.27 29.2 Z M 133.251 21.73 L 133.251 21.73 L 131 21.73 L 130.46 24.79 L 132.68 24.79 L 132.68 24.79 C 133.18 24.79 133.56 24.59 133.82 24.19 L 133.82 24.19 L 133.82 24.19 C 134.08 23.79 134.21 23.28 134.21 22.66 L 134.21 22.66 L 134.21 22.66 C 134.21 22.04 133.89 21.73 133.251 21.73 Z M 134.09 14.56 L 134.09 14.56 L 132.29 14.56 L 131.781 17.35 L 133.55 17.35 L 133.55 17.35 C 134.471 17.35 134.93 16.7 134.93 15.4 L 134.93 15.4 L 134.93 15.4 C 134.93 14.84 134.65 14.56 134.09 14.56 Z M 146.779 26.23 L 145.609 29.2 L 139.609 29.2 L 147.499 10.45 L 156.319 10.45 L 157.639 29.2 L 151.609 29.2 L 151.489 26.23 L 146.779 26.23 Z M 151.039 16.21 L 150.739 16.21 L 148.639 21.46 L 151.039 21.46 L 151.039 16.21 Z M 171.858 24.4 L 171.018 29.2 L 159.618 29.2 L 162.918 10.45 L 168.618 10.45 L 166.158 24.4 L 171.858 24.4 Z M 184.637 24.4 L 183.797 29.2 L 172.397 29.2 L 175.697 10.45 L 181.397 10.45 L 178.937 24.4 L 184.637 24.4 Z" style="white-space: pre; fill: rgb(255, 255, 255);"/>
  <path d="M 24.709 26.984 C 24.179 26.933 23.51 26.783 23.002 26.6 C 20.981 25.867 19.396 24.242 18.719 22.208 C 18.204 20.657 18.247 18.958 18.846 17.45 C 19.201 16.557 19.683 15.818 20.359 15.121 C 20.917 14.551 21.483 14.131 22.179 13.772 C 24.492 12.578 27.296 12.782 29.418 14.293 C 29.751 14.533 30.004 14.747 30.318 15.063 C 31.422 16.165 32.105 17.545 32.32 19.109 C 32.36 19.412 32.377 20.289 32.349 20.613 C 32.163 22.67 31.096 24.517 29.4 25.728 C 28.417 26.427 27.203 26.877 25.997 26.985 C 25.75 27.005 24.95 27.005 24.709 26.984 Z M 21.638 22.633 C 21.56 22.404 21.477 22.054 21.435 21.793 C 21.392 21.502 21.392 20.795 21.435 20.497 C 21.613 19.322 22.125 18.318 22.956 17.508 C 23.791 16.697 24.798 16.211 25.947 16.064 C 26.231 16.027 26.885 16.033 27.154 16.075 C 27.424 16.116 27.773 16.198 27.994 16.275 C 28.089 16.307 28.167 16.33 28.173 16.325 C 28.184 16.311 27.904 16.11 27.731 16.004 C 27.192 15.677 26.592 15.471 25.922 15.381 C 25.687 15.352 25.033 15.352 24.804 15.384 C 23.424 15.573 22.244 16.31 21.479 17.461 C 21.329 17.684 21.082 18.179 20.985 18.442 C 20.493 19.786 20.674 21.321 21.465 22.522 C 21.546 22.645 21.681 22.818 21.687 22.809 C 21.691 22.804 21.668 22.726 21.638 22.633 Z" style="fill: rgb(204, 204, 204);"/>
</svg>
